X: 3454
T: Betty Black
R: barndance
M: 4/4
K: Gminor
K: Bb Major
F|EDCB, F2 B2|EDCB, F,2 B,2|EDCB, F2 B2|F2 B,2 B,3 E|
EDCB, F2 B2|EDCB, F,2 B,2|EDCB, F2 B2|F2 B,2 B,3||
d|dcde f2 F2|GFGA B3 e|dcde f2 FB|GFGA B3 e|
dcde f2 FB|GFGA Bece|dcde f2 FB|GFGA B3||
D|B,CCD EGFE|DB,DF BF D/C/B,|C3 D EGFE|D2 B,2 B,2 DB,|
C3 D EGFE|D/C/B, DF BFDF|C3 D EGFE|D2 B,2 B,2||
G/A/B|d4 d3 F-|FBdB FBdB|d4 d3 F-|FAcA B/c/B ce|
d4 d3 F-|FBdB FBdB|d4 d3 F-|FAcA B2||
ce|d2 B2 BA A/G/F|DFEG FAce|d2 B2 BA A/G/F|F2 B,2 B,2 c/c/e|
d2 B2 BA A/G/F|DFEG FAce|d2 B2 BA A/G/F|F2 B,2 B,3||
F|Bcde fe e/d/c|dfcB BAGF|Bcde fedc|d/e/f cA B2 F/G/A|
Bcde fe e/d/c|dfcB BA A/G/F|Bcde fedc|dfcA B3||

